X:575
T: De Kirmesjang (273), S. 583
N: T0463
O: Luxemburg
S: Singendes Volk, Esch-Alzette, 1937 posth.]
N: Luxemburg, hhh Johann Weimerskirch, 1900
R: ???]
M: 2/4
L: 1/16
K: A
E2 | A2E2C2EE | A4
c4 | B2A2G2FF | E4
F4 | E2D2C2DD | E2E2E2
E2 | F2E2E2E2 | F2E2E2
E2 | A2A2B2BB | c4
e4 | c2A2B2EE | A4z2

@@@ Tune index: 8629
